X: 1
T: Trip To Fanore, The
M: 4/4
L: 1/8
R: reel
K: Gmaj
|:~G3 B dB ~B2|dege dBGB|cBAG FDDE|~F3 G AGFG|
~E3 F EC~C2|EFGF EC ~C2|B,EED EFGA|1B{d}BAF GFEF:|2B2 AF GABd||
|:~g3 a bg~g2|dg ~g2 abag|fdAG FDDE|~F3 G ABcd|
~e3 f ec~c2|efgf ec~c2|B{d}BAF GABc|1 d^cde fedf:|2 d2ge dBAF||
